public/assets/electric1.svg

<svg width="79" height="103" viewBox="0 0 79 103" fill="none" xmlns="http://www.w3.org/2000/svg">
<path d="M78.3345 103H0.665543C0.292839 103 0 102.705 0 102.329V0.670835C0 0.295167 0.292839 0 0.665543 0H78.3345C78.7072 0 79 0.295167 79 0.670835V102.329C79 102.691 78.7072 103 78.3345 103Z" fill="url(#paint0_linear_57_83)"/>
<path d="M63.0939 98.6929H15.9202C15.1881 98.6929 14.5758 98.116 14.5359 97.378L9.59755 5.71514C9.55762 4.95039 10.1699 4.29297 10.9286 4.29297H68.0855C68.8575 4.29297 69.4565 4.93697 69.4166 5.71514L64.465 97.378C64.425 98.116 63.826 98.6929 63.0939 98.6929Z" fill="#FEF7EC" stroke="#062023" stroke-width="3" stroke-miterlimit="10" stroke-linecap="round" stroke-linejoin="round"/>
<path d="M54.8139 93.541H24.1856C22.7214 93.541 21.5234 92.3335 21.5234 90.8577V77.2263C21.5234 75.7505 22.7214 74.543 24.1856 74.543H54.8139C56.2781 74.543 57.4761 75.7505 57.4761 77.2263V90.8577C57.4761 92.3335 56.2781 93.541 54.8139 93.541Z" fill="url(#paint1_linear_57_83)"/>
<path d="M51.2203 86.2693C52.4407 86.2693 53.4299 85.2722 53.4299 84.0421C53.4299 82.8121 52.4407 81.8149 51.2203 81.8149C50 81.8149 49.0107 82.8121 49.0107 84.0421C49.0107 85.2722 50 86.2693 51.2203 86.2693Z" fill="#FEF7EC"/>
<path d="M27.7799 86.2698C29.0002 86.2698 29.9895 85.2726 29.9895 84.0426C29.9895 82.8126 29.0002 81.8154 27.7799 81.8154C26.5596 81.8154 25.5703 82.8126 25.5703 84.0426C25.5703 85.2726 26.5596 86.2698 27.7799 86.2698Z" fill="#FEF7EC"/>
<path d="M46.7747 79.2656H32.2393V88.8183H46.7747V79.2656Z" fill="#062023"/>
<g clip-path="url(#clip0_57_83)">
<path d="M35.652 60.709L54.0979 28.6954C54.5155 27.9706 53.9232 27.0787 53.0992 27.1917L40.8295 28.8726L43.7611 13.3591C43.8599 12.8362 43.191 12.5365 42.8721 12.9608L24.7357 37.0912C24.2074 37.794 24.7668 38.7934 25.6368 38.7011L39.1641 37.2659L34.7294 60.3605C34.6225 60.9176 35.3692 61.1997 35.652 60.709Z" fill="#FFDC64"/>
<path d="M30.4073 35.3815C30.0685 35.4088 29.8435 35.0356 30.0236 34.7451L43.5837 12.8765C43.382 12.7156 43.0644 12.7052 42.8721 12.9611L24.7357 37.0915C24.2074 37.7944 24.7668 38.7937 25.6368 38.7014L39.1641 37.2661L34.7294 60.3608C34.6697 60.6723 34.8781 60.8915 35.1218 60.9439L42.721 36.7065C43.0772 35.5704 42.1785 34.4323 41.0002 34.5274L30.4073 35.3815Z" fill="#FFC850"/>
</g>
<defs>
<linearGradient id="paint0_linear_57_83" x1="-5.59989" y1="6.03738" x2="85.3197" y2="96.2398" gradientUnits="userSpaceOnUse">
<stop offset="0.00249518" stop-color="#28C985"/>
<stop offset="1" stop-color="#18808A"/>
</linearGradient>
<linearGradient id="paint1_linear_57_83" x1="26.5844" y1="71.0166" x2="52.6252" y2="96.852" gradientUnits="userSpaceOnUse">
<stop offset="0.00249518" stop-color="#28C985"/>
<stop offset="1" stop-color="#18808A"/>
</linearGradient>
<clipPath id="clip0_57_83">
<rect width="47.8222" height="48.2025" fill="white" transform="translate(15.4717 12.7593)"/>
</clipPath>
</defs>
</svg>

<svg width="79" height="103" fill="none" xmlns="http://www.w3.org/2000/svg"><path d="M78.335 103H.665a.662.662 0 0 1-.665-.671V.671C0 .295.293 0 .666 0h77.669c.372 0 .665.295.665.67V102.33a.67.67 0 0 1-.665.671z" fill="url(#a)"/><path d="M63.094 98.693H15.92a1.39 1.39 0 0 1-1.384-1.315L9.598 5.715c-.04-.765.572-1.422 1.33-1.422h57.157c.773 0 1.372.644 1.332 1.422l-4.952 91.663a1.379 1.379 0 0 1-1.371 1.315z" fill="#FEF7EC" stroke="#062023" stroke-width="3" stroke-miterlimit="10" stroke-linecap="round" stroke-linejoin="round"/><path d="M54.814 93.541H24.186c-1.465 0-2.663-1.207-2.663-2.683V77.226c0-1.475 1.198-2.683 2.663-2.683h30.628c1.464 0 2.662 1.207 2.662 2.683v13.632c0 1.475-1.198 2.683-2.662 2.683z" fill="url(#b)"/><path d="M51.22 86.27c1.22 0 2.21-.998 2.21-2.228 0-1.23-.99-2.227-2.21-2.227s-2.21.997-2.21 2.227.99 2.227 2.21 2.227zM27.78 86.27c1.22 0 2.21-.997 2.21-2.227s-.99-2.228-2.21-2.228-2.21.998-2.21 2.228c0 1.23.99 2.227 2.21 2.227z" fill="#FEF7EC"/><path d="M46.775 79.266H32.239v9.552h14.536v-9.552z" fill="#062023"/><g clip-path="url(#c)"><path d="m35.652 60.709 18.446-32.014c.418-.724-.175-1.616-.999-1.503l-12.27 1.68 2.932-15.513c.099-.523-.57-.822-.889-.398L24.736 37.09c-.529.703.03 1.702.9 1.61l13.528-1.435L34.73 60.36c-.106.557.64.839.923.348z" fill="#FFDC64"/><path d="M30.407 35.382a.417.417 0 0 1-.383-.637l13.56-21.868c-.202-.161-.52-.172-.712.084l-18.136 24.13c-.529.703.03 1.703.9 1.61l13.528-1.435-4.435 23.095c-.06.311.15.53.393.583l7.599-24.238c.356-1.136-.542-2.274-1.72-2.179l-10.594.855z" fill="#FFC850"/></g><defs><linearGradient id="a" x1="-5.6" y1="6.037" x2="85.32" y2="96.24" gradientUnits="userSpaceOnUse"><stop offset=".002" stop-color="#28C985"/><stop offset="1" stop-color="#18808A"/></linearGradient><linearGradient id="b" x1="26.584" y1="71.017" x2="52.625" y2="96.852" gradientUnits="userSpaceOnUse"><stop offset=".002" stop-color="#28C985"/><stop offset="1" stop-color="#18808A"/></linearGradient><clipPath id="c"><path fill="#fff" transform="translate(15.472 12.76)" d="M0 0h47.822v48.203H0z"/></clipPath></defs></svg>
